img/logo_fiamma.svg

<svg height="180" viewBox="0 0 540 180" width="540" xmlns="http://www.w3.org/2000/svg"><g fill="none" transform="translate(31 37)"><g fill="#fff"><path d="m121.260509 61.4875899v2.4827832 39.8998019c0 2.12534.001381 2.1281 2.191317 2.1281 4.197606.001725 8.393832.00414 12.590058-.00276.589598-.00138 1.179196-.049684 1.969009-.085566 0-14.838735 0-29.538081 0-44.3022912h14.081313v44.2829702h16.907794c0-20.3866999 0-40.6643724 0-61.1131762-.747008 0-1.3946 0-2.043572 0-9.055231.0013801-18.110463-.0345023-27.165695.0386425-1.506443.0124209-1.851641-.4609503-1.836453-1.8769233.067659-6.4022407.01657-12.8031013.03452-19.2053421.008285-3.3881226 2.053237-6.0089148 5.396134-6.5098878 2.272783-.3422625 4.618748-.1794117 6.926051-.3436425 1.351795-.0952263 1.83093.3215611 1.799171 1.734774-.086989 3.9705209-.034519 7.9465622-.028996 11.9198433.001381.5906788.056612 1.1799775.088371 1.8148192h16.808376c0-5.6059284 0-11.0876486 0-16.7280793-5.2332 0-10.342129 0-15.586376 0-.037281-.7990725-.091132-1.446335-.093894-2.0963577-.009665-4.02986483-.008284-8.05696947-.006904-12.08683429 0-.74800916.023474-1.47945722-1.065971-1.43667441-3.797177.15595025-7.671678-.12696835-11.380485.52581455-11.029763 1.93488715-19.806075 11.10282965-19.411169 23.05165485.215404 6.5071276.011047 13.0252959.060755 19.5365638.009666 1.2738237-.33139 1.7251134-1.676281 1.6961315-4.02915-.0869457-8.061062-.0345023-12.091592-.0289819-.578552.0013801-1.158485.0552036-1.72599.0828054v16.6204322c5.053697.0013801 10.04664.0013801 15.260509.0013801z"/><path d="m323 105.908089c0-.74005 0-1.388805 0-2.03756 0-11.5074427 0-23.0148854 0-34.5223281-.001381-13.9184865-10.376235-24.3276109-24.287185-24.3400604-17.51335-.0138327-35.025318-.0055331-52.538668-.0069163-.703075 0-1.40477 0-2.174147 0v60.8695168h17.737118c0-14.8729445 0-29.614478 0-44.3546282 2.323326 0 4.486423-.1756756 6.609463.0414982 3.35653.3444348 5.90915 3.2465402 6.112199 6.6175749.033151.5505424.015194 1.1052346.015194 1.6585436 0 11.34145 0 22.6829001.001381 34.0257335 0 2.138539.004144 2.139922 2.193486 2.139922 4.584494.001383 9.171751 0 13.756246 0 .592573.001383 1.183764 0 1.998724 0 0-.845179-.001382-1.492551 0-2.141305.038676-13.5533029.103596-27.1079887.081496-40.6626746-.002763-1.5077668.46135-1.9587136 1.881314-1.8203864 1.09398.1078953 2.208679.0027666 3.310947.0497978 4.759918.2061076 7.526638 3.0943803 7.528019 7.8403877.002763 11.5074428.001381 23.0148855.001381 34.5223285v2.119173c6.045898.001383 11.822444.001383 17.773032.001383z"/><path d="m354.664784 61.4550216c1.879144 0 3.531852-.0512712 5.180418.0110857 4.839383.1815278 7.615988 3.0859723 7.617368 7.9234799.004143 11.5263215.001381 23.0554144.001381 34.5817358v2.028677h18.014103c0-14.872807 0-29.6416858 0-44.5768497 1.535348 0 2.902249-.0055428 4.269151.0013857 5.859726.0304856 8.741265 2.9252302 8.745407 8.8131047.008284 11.1937515.004142 22.3888887.004142 33.5826403v2.167248h17.503246c0-.828654 0-1.536751 0-2.244848 0-11.5817496-.006908-23.1662708 0-34.7480206.008279-13.428899-10.429877-23.974139-23.792373-23.9866104-17.780763-.0152428-35.561527-.0041571-53.34229-.0041571-.592324 0-1.181886 0-1.865337 0v60.9656211h17.666165c-.001381-14.865878-.001381-29.5931856-.001381-44.5144924z"/><path d="m.0013815 106h2.05567163 35.80432917c4.6307871 0 4.5672381-.022249 6.0896509-4.392739 4.0063493-11.5053883 2.1827696-21.8621846-5.8699925-31.045359-1.5348462-1.750699-3.0793629-3.4958359-4.5492787-5.3007663-10.3073696-12.6470277-14.1976729-27.1240156-12.0259553-43.2752225.3578084-2.6615076 1.0568473-5.2799082 1.6122102-7.9859132-7.7225836 0-15.37194778 0-23.1180169 0 .0013815 30.6754735.0013815 61.2313599.0013815 92z"/><path d="m92 14c-.8485448 0-1.6031139 0-2.357683 0-11.8796268 0-23.7592536.0013904-35.6388804.0013904-4.3767773 0-4.3905973-.0055617-5.7960859 4.1198181-3.0998142 9.0989163-3.3941791 18.0462768 2.1158339 26.3693381 2.3452451 3.5441837 5.2170302 6.7407621 7.9326498 10.0263274 10.1880653 12.3344265 14.1253683 26.5292366 12.4268967 42.3619629-.3289147 3.0617075-1.1125057 6.0747501-1.6874155 9.1211631h23.0046844c0-30.6615685 0-61.207732 0-92z"/></g><path d="m121.26189 61.4862098c-5.213869 0-10.208193 0-15.26189 0 0-5.615589 0-11.0117436 0-16.6204322.568886-.0276018 1.147438-.0814253 1.72599-.0828054 4.03053-.0069005 8.062442-.0593439 12.091592.0289819 1.344891.0289819 1.685947-.4223078 1.676281-1.6961315-.049708-6.512648.154649-13.0294362-.060755-19.5365638-.396287-11.9488252 8.381406-21.1167677 19.411169-23.05165485 3.710188-.6527829 7.583308-.3698643 11.380485-.52581455 1.089445-.04278281 1.065971.68866525 1.065971 1.43667441-.00138 4.02986482-.002761 8.05696946.006904 12.08683429.001381.6500227.056613 1.2959051.093894 2.0963577h15.586376v16.7280793c-5.56459 0-11.107088 0-16.808376 0-.031759-.6348417-.08699-1.2255205-.088371-1.8148192-.006904-3.9732811-.059374-7.9493224.028996-11.9198433.031759-1.4118328-.447376-1.8300003-1.799171-1.734774-2.305922.1642308-4.651887.00138-6.926051.3436425-3.342897.500973-5.386468 3.1217652-5.396134 6.5098878-.01795 6.4022408.031758 12.8031014-.03452 19.2053421-.015188 1.415973.33001 1.8893442 1.836453 1.8769233 9.055232-.0745249 18.110464-.0372624 27.165695-.0386425h2.043572v61.1131762c-5.600491 0-11.142989 0-16.907794 0 0-14.7655905 0-29.4690767 0-44.2829702-4.772016 0-9.321724 0-14.081313 0v44.3022912c-.789813.034502-1.379411.084186-1.969009.085566-4.196226.0069-8.392452.004485-12.590058.00276-2.189936 0-2.191317-.00276-2.191317-2.1281 0-13.299934 0-26.599868 0-39.8998019.001381-.7590499.001381-1.5153396.001381-2.4841633z" fill="#000"/><path d="m323 105.906706c-5.950588 0-11.725753 0-17.773032 0 0-.731751 0-1.424771 0-2.119173 0-11.507443.001382-23.0148857-.001381-34.5223285-.001381-4.7460074-2.768101-7.6342801-7.528019-7.8403877-1.103649-.0470312-2.216967.0580975-3.310947-.0497978-1.419964-.1383272-1.884077.3140029-1.881314 1.8203864.023481 13.5546859-.041439 27.1093717-.081496 40.6626746-.001382.648754 0 1.296126 0 2.141305-.81496 0-1.407533.001383-1.998724 0-4.584495 0-9.171752.001383-13.756246 0-2.189342 0-2.193486-.001383-2.193486-2.139922-.001381-11.3414502-.001381-22.6829002-.001381-34.0257335 0-.553309.019338-1.1080012-.015194-1.6585436-.201668-3.372418-2.755669-6.2731401-6.112199-6.6175749-2.12304-.2171738-4.287518-.0414982-6.609463-.0414982v44.3546282c-5.994789 0-11.811393 0-17.737118 0 0-20.2455743 0-40.4593332 0-60.8695168h2.174147c17.51335.0013832 35.025318-.0069164 52.538668.0069163 13.91095.0124495 24.285804 10.4215739 24.287185 24.3400604v34.5223281z" fill="#000"/><path d="m354.666165 61.4536359v44.5158781c-5.927382 0-11.738784 0-17.666165 0 0-20.2853831 0-40.5278097 0-60.9656211h1.865337c17.780763 0 35.561527-.0110857 53.34229.0041571 13.363877.0124714 23.800652 10.5563257 23.792373 23.9866104-.006908 11.5817498 0 23.166271 0 34.7480206v2.244848c-5.8763 0-11.580007 0-17.503246 0 0-.760754 0-1.464694 0-2.167248 0-11.1937516.004142-22.3888888-.004142-33.5826403-.004142-5.8878745-2.885681-8.7826191-8.745407-8.8131047-1.366902-.0069285-2.732422-.0013857-4.269151-.0013857v44.5768497c-6.044741 0-11.916894 0-18.014103 0 0-.730268 0-1.380165 0-2.028677 0-11.5263214.002762-23.0554143-.001381-34.5817358-.00138-4.8375076-2.777985-7.7419521-7.617368-7.9234799-1.648566-.0637426-3.299893-.0124714-5.179037-.0124714z" fill="#000"/><path d="m0 106c0-30.7686401 0-61.3259171 0-92h23.118484c-.5553741 2.706005-1.2544271 5.3244056-1.6122427 7.9859132-2.1717615 16.1512069 1.7186204 30.6281948 12.0261983 43.2752225 1.4699455 1.8049304 3.0144934 3.5500673 4.5493707 5.3007663 8.0515432 9.1831744 9.8751597 19.5399707 5.870111 31.045359-1.5224435 4.371881-1.4602747 4.392739-6.0897739 4.392739-11.9350176 0-23.8700351 0-35.8050527 0-.64793648 0-1.29449143 0-2.0570947 0z" fill="#ff5e50"/><path d="m92 14.0013904v91.9986096c-7.7239686 0-15.3733095 0-23.0046844 0 .5762918-3.045022 1.3585008-6.0580652 1.6874155-9.1211631 1.6984716-15.8327263-2.2402134-30.0275364-12.4268967-42.3619629-2.7142376-3.2855653-5.5860227-6.4821437-7.9326498-10.0263274-5.510013-8.3230613-5.2156481-17.2704218-2.1158339-26.3693381 1.4054886-4.1253798 1.4193086-4.1198181 5.7960859-4.1198181 11.8796268 0 23.7592536-.0013904 35.6388804-.0013904.7545691.0013904 1.5091382.0013904 2.357683.0013904z" fill="#ff5e50"/><path d="m477 45.201872v60.792996c-.961274 0-1.786414 0-2.611553 0-7.385973 0-14.773335.012418-22.159308-.00138-12.454887-.024836-23.220599-10.6438449-23.229039-23.0138308-.004062-5.5123362.115403-11.0301916.361278-16.5356287.494528-11.092283 10.547619-20.9910313 21.87037-21.3194258 8.268066-.2400867 16.548635-.0593318 24.823648-.0593318.270879-.0013798.541758.0758895.944604.1366011zm-17.734948 45.1059497c.180587-.5229475.279214-.6761063.279214-.8320247.01667-9.1067381.018059-18.2120964.041677-27.3188345.001386-.9506882-.43341-1.2445875-1.330784-1.2100923-1.275216.0496731-2.558766-.042774-3.832593.0372549-4.450754.2801012-7.545722 3.197017-7.594342 7.245376-.059732 4.856927-.050008 9.7138539.001389 14.5707809.036118 3.4467624 2.272608 6.3733369 5.669016 7.0439239 2.198983.4346398 4.50354.3283945 6.766423.4636158z" fill="#000"/><path d="m229.858381 106c-.750958 0-1.299255 0-1.848939 0-7.60258-.002761-15.203772-.002761-22.806353-.006902-11.446207-.005521-21.847181-8.9266182-22.781367-20.2453551-.569117-6.8920066-.564953-13.9096235.02915-20.7988693.942515-10.9142992 11.24077-19.8271144 22.233071-19.9057934 7.878811-.0565937 15.760397.0151837 23.639208-.0429375 1.345061-.0095152 1.679591.4556573 1.676832 1.7172824-.030555 19.2032034-.020838 38.4050266-.025003 57.6068499.002777.484497-.063852.970374-.116599 1.675725zm-17.260925-44.949189c-1.994688 0-3.88527-.1822041-5.72588.0358887-4.780589.5686975-7.051508 3.217558-7.055672 7.9659062-.002776 4.6351608-.027762 9.2717019.023598 13.9054824.037478 3.4246081 2.362532 6.339873 5.76891 6.9140919 2.25565.3795918 4.590421.2926307 6.989044.4196215 0-9.8762882 0-19.4571849 0-29.2409907z" fill="#000"/></g></svg>

<?xml version="1.0" encoding="UTF-8"?>
<svg width="540px" height="180px" viewBox="0 0 540 180" version="1.1" xmlns="http://www.w3.org/2000/svg" xmlns:xlink="http://www.w3.org/1999/xlink">
    <title>Logo Fiamma</title>
    <g id="Logo-Fiamma" stroke="none" stroke-width="1" fill="none" fill-rule="evenodd">
        <g id="fiamma-com-slogan" transform="translate(31.000000, 37.000000)" fill-rule="nonzero">
            <path d="M121.260509,61.4875899 C121.260509,62.4550335 121.260509,63.2127033 121.260509,63.9703731 C121.260509,77.270307 121.260509,90.570241 121.260509,103.870175 C121.260509,105.995515 121.26189,105.998275 123.451826,105.998275 C127.649432,106 131.845658,106.002415 136.041884,105.995515 C136.631482,105.994135 137.22108,105.945831 138.010893,105.909949 C138.010893,91.071214 138.010893,76.371868 138.010893,61.6076578 C142.770482,61.6076578 147.32019,61.6076578 152.092206,61.6076578 C152.092206,76.4215513 152.092206,91.1250375 152.092206,105.890628 C157.857011,105.890628 163.399509,105.890628 169,105.890628 C169,85.5039281 169,65.2262556 169,44.7774518 C168.252992,44.7774518 167.6054,44.7774518 166.956428,44.7774518 C157.901197,44.7788319 148.845965,44.7429495 139.790733,44.8160943 C138.28429,44.8285152 137.939092,44.355144 137.95428,42.939171 C138.021939,36.5369303 137.97085,30.1360697 137.9888,23.7338289 C137.997085,20.3457063 140.042037,17.7249141 143.384934,17.2239411 C145.657717,16.8816786 148.003682,17.0445294 150.310985,16.8802986 C151.66278,16.7850723 152.141915,17.2018597 152.110156,18.6150726 C152.023167,22.5855935 152.075637,26.5616348 152.08116,30.5349159 C152.082541,31.1255947 152.137772,31.7148934 152.169531,32.3497351 C157.870819,32.3497351 163.413317,32.3497351 168.977907,32.3497351 C168.977907,26.7438067 168.977907,21.2620865 168.977907,15.6216558 C163.744707,15.6216558 158.635778,15.6216558 153.391531,15.6216558 C153.35425,14.8225833 153.300399,14.1753208 153.297637,13.5252981 C153.287972,9.49543327 153.289353,5.46832863 153.290733,1.43846381 C153.290733,0.690454653 153.314207,-0.0409934135 152.224762,0.0017893979 C148.427585,0.157739646 144.553084,-0.125178946 140.844277,0.527603951 C129.814514,2.4624911 121.038202,11.6304336 121.433108,23.5792588 C121.648512,30.0863864 121.444155,36.6045547 121.493863,43.1158226 C121.503529,44.3896463 121.162473,44.840936 119.817582,44.8119541 C115.788432,44.7250084 111.75652,44.7774518 107.72599,44.7829722 C107.147438,44.7843523 106.567505,44.8381758 106,44.8657776 C106,50.4744662 106,55.8706208 106,61.4862098 C111.053697,61.4875899 116.04664,61.4875899 121.260509,61.4875899 Z" id="Path" fill="#FFFFFF"></path>
            <path d="M323,105.908089 C323,105.168039 323,104.519284 323,103.870529 C323,92.3630863 323,80.8556436 323,69.3482009 C322.998619,55.4297144 312.623765,45.02059 298.712815,45.0081405 C281.199465,44.9943078 263.687497,45.0026074 246.174147,45.0012242 C245.471072,45.0012242 244.769377,45.0012242 244,45.0012242 C244,65.4114078 244,85.6251667 244,105.870741 C249.925725,105.870741 255.742329,105.870741 261.737118,105.870741 C261.737118,90.9977965 261.737118,76.256263 261.737118,61.5161128 C264.060444,61.5161128 266.223541,61.3404372 268.346581,61.557611 C271.703111,61.9020458 274.255731,64.8041512 274.45878,68.1751859 C274.491931,68.7257283 274.473974,69.2804205 274.473974,69.8337295 C274.473974,81.1751795 274.473974,92.5166296 274.475355,103.859463 C274.475355,105.998002 274.479499,105.999385 276.668841,105.999385 C281.253335,106.000768 285.840592,105.999385 290.425087,105.999385 C291.01766,106.000768 291.608851,105.999385 292.423811,105.999385 C292.423811,105.154206 292.422429,104.506834 292.423811,103.85808 C292.462487,90.3047771 292.527407,76.7500913 292.505307,63.1954054 C292.502544,61.6876386 292.966657,61.2366918 294.386621,61.375019 C295.480601,61.4829143 296.5953,61.3777856 297.697568,61.4248168 C302.457486,61.6309244 305.224206,64.5191971 305.225587,69.2652045 C305.22835,80.7726473 305.226968,92.28009 305.226968,103.787533 C305.226968,104.481935 305.226968,105.174955 305.226968,105.906706 C311.272866,105.908089 317.049412,105.908089 323,105.908089 Z" id="Path" fill="#FFFFFF"></path>
            <path d="M354.664784,61.4550216 C356.543928,61.4550216 358.196636,61.4037504 359.845202,61.4661073 C364.684585,61.6476351 367.46119,64.5520796 367.46257,69.3895872 C367.466713,80.9159087 367.463951,92.4450016 367.463951,103.971323 C367.463951,104.619835 367.463951,105.269732 367.463951,106 C373.56116,106 379.433313,106 385.478054,106 C385.478054,91.127193 385.478054,76.3583142 385.478054,61.4231503 C387.013402,61.4231503 388.380303,61.4176075 389.747205,61.424536 C395.606931,61.4550216 398.48847,64.3497662 398.492612,70.2376407 C398.500896,81.4313922 398.496754,92.6265294 398.496754,103.820281 C398.496754,104.524221 398.496754,105.22816 398.496754,105.987529 C404.419993,105.987529 410.1237,105.987529 416,105.987529 C416,105.158875 416,104.450778 416,103.742681 C416,92.1609314 415.993092,80.5764102 416,68.9946604 C416.008279,55.5657614 405.570123,45.0205214 392.207627,45.00805 C374.426864,44.9928072 356.6461,45.0038929 338.865337,45.0038929 C338.273013,45.0038929 337.683451,45.0038929 337,45.0038929 C337,65.4417043 337,85.6841309 337,105.969514 C342.927381,105.969514 348.738783,105.969514 354.666165,105.969514 C354.664784,91.103636 354.664784,76.3763284 354.664784,61.4550216 Z" id="Path" fill="#FFFFFF"></path>
            <path d="M0.00138149975,106 C0.765350864,106 1.41189275,106 2.05705313,106 C13.9918295,106 25.9266059,106 37.8613823,106 C42.4921694,106 42.4286204,105.977751 43.9510332,101.607261 C47.9573825,90.1018727 46.1338028,79.7450764 38.0810407,70.561902 C36.5461945,68.811203 35.0016778,67.0660661 33.531762,65.2611357 C23.2243924,52.614108 19.3340891,38.1371201 21.5058067,21.9859132 C21.8636151,19.3244056 22.562654,16.706005 23.1180169,14 C15.3954333,14 7.74606912,14 0,14 C0.00138149975,44.6754735 0.00138149975,75.2313599 0.00138149975,106 Z" id="Path" fill="#FFFFFF"></path>
            <path d="M92,14 C91.1514552,14 90.3968861,14 89.642317,14 C77.7626902,14 65.8830634,14.0013904 54.0034366,14.0013904 C49.6266593,14.0013904 49.6128393,13.9958287 48.2073507,18.1212085 C45.1075365,27.2201248 44.8131716,36.1674853 50.3231846,44.4905466 C52.6684297,48.0347303 55.5402148,51.2313087 58.2558344,54.516874 C68.4438997,66.8513005 72.3812027,81.0461106 70.6827311,96.8788369 C70.3538164,99.9405444 69.5702254,102.953587 68.9953156,106 C76.6266905,106 84.2774134,106 92,106 C92,75.3384315 92,44.792268 92,14 Z" id="Path" fill="#FFFFFF"></path>
            <path d="M121.26189,61.4862098 C116.048021,61.4862098 111.053697,61.4862098 106,61.4862098 C106,55.8706208 106,50.4744662 106,44.8657776 C106.568886,44.8381758 107.147438,44.7843523 107.72599,44.7829722 C111.75652,44.7760717 115.788432,44.7236283 119.817582,44.8119541 C121.162473,44.840936 121.503529,44.3896463 121.493863,43.1158226 C121.444155,36.6031746 121.648512,30.0863864 121.433108,23.5792588 C121.036821,11.6304336 129.814514,2.4624911 140.844277,0.527603951 C144.554465,-0.125178946 148.427585,0.157739646 152.224762,0.0017893979 C153.314207,-0.0409934135 153.290733,0.690454653 153.290733,1.43846381 C153.289353,5.46832863 153.287972,9.49543327 153.297637,13.5252981 C153.299018,14.1753208 153.35425,14.8212032 153.391531,15.6216558 C158.635778,15.6216558 163.746088,15.6216558 168.977907,15.6216558 C168.977907,21.2620865 168.977907,26.7451868 168.977907,32.3497351 C163.413317,32.3497351 157.870819,32.3497351 152.169531,32.3497351 C152.137772,31.7148934 152.082541,31.1242146 152.08116,30.5349159 C152.074256,26.5616348 152.021786,22.5855935 152.110156,18.6150726 C152.141915,17.2032398 151.66278,16.7850723 150.310985,16.8802986 C148.005063,17.0445294 145.659098,16.8816786 143.384934,17.2239411 C140.042037,17.7249141 137.998466,20.3457063 137.9888,23.7338289 C137.97085,30.1360697 138.020558,36.5369303 137.95428,42.939171 C137.939092,44.355144 138.28429,44.8285152 139.790733,44.8160943 C148.845965,44.7415694 157.901197,44.7788319 166.956428,44.7774518 C167.6054,44.7774518 168.254373,44.7774518 169,44.7774518 C169,65.2262556 169,85.5039281 169,105.890628 C163.399509,105.890628 157.857011,105.890628 152.092206,105.890628 C152.092206,91.1250375 152.092206,76.4215513 152.092206,61.6076578 C147.32019,61.6076578 142.770482,61.6076578 138.010893,61.6076578 C138.010893,76.3704879 138.010893,91.071214 138.010893,105.909949 C137.22108,105.944451 136.631482,105.994135 136.041884,105.995515 C131.845658,106.002415 127.649432,106 123.451826,105.998275 C121.26189,105.998275 121.260509,105.995515 121.260509,103.870175 C121.260509,90.570241 121.260509,77.270307 121.260509,63.9703731 C121.26189,63.2113232 121.26189,62.4550335 121.26189,61.4862098 Z" id="Path" fill="#000000"></path>
            <path d="M323,105.906706 C317.049412,105.906706 311.274247,105.906706 305.226968,105.906706 C305.226968,105.174955 305.226968,104.481935 305.226968,103.787533 C305.226968,92.28009 305.22835,80.7726473 305.225587,69.2652045 C305.224206,64.5191971 302.457486,61.6309244 297.697568,61.4248168 C296.593919,61.3777856 295.480601,61.4829143 294.386621,61.375019 C292.966657,61.2366918 292.502544,61.6890219 292.505307,63.1954054 C292.528788,76.7500913 292.463868,90.3047771 292.423811,103.85808 C292.422429,104.506834 292.423811,105.154206 292.423811,105.999385 C291.608851,105.999385 291.016278,106.000768 290.425087,105.999385 C285.840592,105.999385 281.253335,106.000768 276.668841,105.999385 C274.479499,105.999385 274.475355,105.998002 274.475355,103.859463 C274.473974,92.5180128 274.473974,81.1765628 274.473974,69.8337295 C274.473974,69.2804205 274.493312,68.7257283 274.45878,68.1751859 C274.257112,64.8027679 271.703111,61.9020458 268.346581,61.557611 C266.223541,61.3404372 264.059063,61.5161128 261.737118,61.5161128 C261.737118,76.256263 261.737118,90.9977965 261.737118,105.870741 C255.742329,105.870741 249.925725,105.870741 244,105.870741 C244,85.6251667 244,65.4114078 244,45.0012242 C244.770759,45.0012242 245.471072,45.0012242 246.174147,45.0012242 C263.687497,45.0026074 281.199465,44.9943078 298.712815,45.0081405 C312.623765,45.02059 322.998619,55.4297144 323,69.3482009 C323,80.8556436 323,92.3630863 323,103.870529 C323,104.517901 323,105.166655 323,105.906706 Z" id="Path" fill="#000000"></path>
            <path d="M354.666165,61.4536359 C354.666165,76.3763284 354.666165,91.1022503 354.666165,105.969514 C348.738783,105.969514 342.927381,105.969514 337,105.969514 C337,85.6841309 337,65.4417043 337,45.0038929 C337.68207,45.0038929 338.273013,45.0038929 338.865337,45.0038929 C356.6461,45.0038929 374.426864,44.9928072 392.207627,45.00805 C405.571504,45.0205214 416.008279,55.5643757 416,68.9946604 C415.993092,80.5764102 416,92.1609314 416,103.742681 C416,104.450778 416,105.158875 416,105.987529 C410.1237,105.987529 404.419993,105.987529 398.496754,105.987529 C398.496754,105.226775 398.496754,104.522835 398.496754,103.820281 C398.496754,92.6265294 398.500896,81.4313922 398.492612,70.2376407 C398.48847,64.3497662 395.606931,61.4550216 389.747205,61.424536 C388.380303,61.4176075 387.014783,61.4231503 385.478054,61.4231503 C385.478054,76.3583142 385.478054,91.127193 385.478054,106 C379.433313,106 373.56116,106 367.463951,106 C367.463951,105.269732 367.463951,104.619835 367.463951,103.971323 C367.463951,92.4450016 367.466713,80.9159087 367.46257,69.3895872 C367.46119,64.5520796 364.684585,61.6476351 359.845202,61.4661073 C358.196636,61.4023647 356.545309,61.4536359 354.666165,61.4536359 Z" id="Path" fill="#000000"></path>
            <path d="M0,106 C0,75.2313599 0,44.6740829 0,14 C7.74622565,14 15.3971259,14 23.118484,14 C22.5631099,16.706005 21.8640569,19.3244056 21.5062413,21.9859132 C19.3344798,38.1371201 23.2248617,52.614108 33.5324396,65.2611357 C35.0023851,67.0660661 36.546933,68.811203 38.0818103,70.561902 C46.1333535,79.7450764 47.95697,90.1018727 43.9519213,101.607261 C42.4294778,105.979142 42.4916466,106 37.8621474,106 C25.9271298,106 13.9921123,106 2.0570947,106 C1.40915822,106 0.762603274,106 0,106 Z" id="Path" fill="#FF5E50"></path>
            <path d="M92,14.0013904 C92,44.7936585 92,75.3384315 92,106 C84.2760314,106 76.6266905,106 68.9953156,106 C69.5716074,102.954978 70.3538164,99.9419348 70.6827311,96.8788369 C72.3812027,81.0461106 68.4425177,66.8513005 58.2558344,54.516874 C55.5415968,51.2313087 52.6698117,48.0347303 50.3231846,44.4905466 C44.8131716,36.1674853 45.1075365,27.2201248 48.2073507,18.1212085 C49.6128393,13.9958287 49.6266593,14.0013904 54.0034366,14.0013904 C65.8830634,14.0013904 77.7626902,14 89.642317,14 C90.3968861,14.0013904 91.1514552,14.0013904 92,14.0013904 Z" id="Path" fill="#FF5E50"></path>
            <path d="M477,45.201872 C477,65.4326286 477,85.6371689 477,105.994868 C476.038726,105.994868 475.213586,105.994868 474.388447,105.994868 C467.002474,105.994868 459.615112,106.007286 452.229139,105.993488 C439.774252,105.968652 429.00854,95.3496431 429.0001,82.9796572 C428.996038,77.467321 429.115503,71.9494656 429.361378,66.4440285 C429.855906,55.3517455 439.908997,45.4529972 451.231748,45.1246027 C459.499814,44.884516 467.780383,45.0652709 476.055396,45.0652709 C476.326275,45.0638911 476.597154,45.1411604 477,45.201872 Z M459.265052,90.3078217 C459.445639,89.7848742 459.544266,89.6317154 459.544266,89.475797 C459.560936,80.3690589 459.562325,71.2637006 459.585943,62.1569625 C459.587329,61.2062743 459.152533,60.912375 458.255159,60.9468702 C456.979943,60.9965433 455.696393,60.9040962 454.422566,60.9841251 C449.971812,61.2642263 446.876844,64.1811421 446.828224,68.2295011 C446.768492,73.0864281 446.778216,77.943355 446.829613,82.800282 C446.865731,86.2470444 449.102221,89.1736189 452.498629,89.8442059 C454.697612,90.2788457 457.002169,90.1726004 459.265052,90.3078217 Z" id="Shape" fill="#000000"></path>
            <path d="M229.858381,106 C229.107423,106 228.559126,106 228.009442,106 C220.406862,105.997239 212.80567,105.997239 205.203089,105.993098 C193.756882,105.987577 183.355908,97.0664798 182.421722,85.7477429 C181.852605,78.8557363 181.856769,71.8381194 182.450872,64.9488736 C183.393387,54.0345744 193.691642,45.1217592 204.683943,45.0430802 C212.562754,44.9864865 220.44434,45.0582639 228.323151,45.0001427 C229.668212,44.9906275 230.002742,45.4558 229.999983,46.7174251 C229.969428,65.9206285 229.979145,85.1224517 229.97498,104.324275 C229.977757,104.808772 229.911128,105.294649 229.858381,106 Z M212.597456,61.050811 C210.602768,61.050811 208.712186,60.8686069 206.871576,61.0866997 C202.090987,61.6553972 199.820068,64.3042577 199.815904,69.0526059 C199.813128,73.6877667 199.788142,78.3243078 199.839502,82.9580883 C199.87698,86.3826964 202.202034,89.2979613 205.608412,89.8721802 C207.864062,90.251772 210.198833,90.1648109 212.597456,90.2918017 C212.597456,80.4155135 212.597456,70.8346168 212.597456,61.050811 Z" id="Shape" fill="#000000"></path>
        </g>
    </g>
</svg>
